!!!COM: des Prez, Josquin
!!!CDT: ~1450-1521/08/27
!!!OTL@@FRE: Du mien amant
!!!AGN: Chanson
!!!SCT: NJE 29.5
!!!SCA: New Josquin Edition 29.5
!!!voices: 5
**kern	**text	**text	**kern	**text	**text	**kern	**text	**text	**kern	**text	**text	**kern	**text	**text
*staff5	*	*	*staff4	*	*	*staff3	*	*	*staff2	*	*	*staff1	*	*
*Ivox	*	*	*Ivox	*	*	*Ivox	*	*	*Ivox	*	*	*Ivox	*	*
*I"Bassus	*	*	*I"Tenor	*	*	*I"Altus	*	*	*I"Quintus	*	*	*I"Superius	*	*
*I'B	*	*	*I'T	*	*	*I'Ct	*	*	*I'Q	*	*	*I'S	*	*
*clefF4	*	*	*clefGv2	*	*	*clefGv2	*	*	*clefGv2	*	*	*clefG2	*	*
*>[A,B,B,A,A]	*	*	*>[A,B,B,A,A]	*	*	*>[A,B,B,A,A]	*	*	*>[A,A,B,B]	*	*	*>[A,B,B,A,A]	*	*
*>A	*	*	*>A	*	*	*>A	*	*	*>A	*	*	*>A	*	*
*k[]	*	*	*k[]	*	*	*k[]	*	*	*k[]	*	*	*k[]	*	*
*M2/1	*	*	*M2/1	*	*	*M2/1	*	*	*M2/1	*	*	*M2/1	*	*
*met(C|)	*	*	*met(C|)	*	*	*met(C|)	*	*	*met(C|)	*	*	*met(C|)	*	*
=1-	=1-	=1-	=1-	=1-	=1-	=1-	=1-	=1-	=1-	=1-	=1-	=1-	=1-	=1-
!!LO:TX:Z=10:t=Virelai (AbbaA)
!	!	!	!LO:TX:Z=10:t=Canon at the upper 5th (T-->Q, two breves)	!	!	!	!	!	!	!	!	!	!	!
0D	1. 5. Du	4. En	0r	.	.	1r	.	.	0r	.	.	0d	1. 5. Du	4. En
.	.	.	.	.	.	1d	1. 5. Du	4. En	.	.	.	.	.	.
=2	=2	=2	=2	=2	=2	=2	=2	=2	=2	=2	=2	=2	=2	=2
1E	mien	moy	0r	.	.	1B	mien	moy	0r	.	.	1g	mien	moy
1E	a-	n'y	.	.	.	1c	a-	n'y	.	.	.	1g	a-	n'y
=3	=3	=3	=3	=3	=3	=3	=3	=3	=3	=3	=3	=3	=3	=3
0D	-mant	a	0D	1. 5. Du	4. En	1d	-mant,	a,	0r	.	.	0f	-mant	a
.	.	.	.	.	.	2r	.	.	.	.	.	.	.	.
.	.	.	.	.	.	2A/	du	en	.	.	.	.	.	.
=4	=4	=4	=4	=4	=4	=4	=4	=4	=4	=4	=4	=4	=4	=4
0r	.	.	1G	mien	moy	1B	mien	moy	0r	.	.	1r	.	.
.	.	.	1G	a-	n'y	1B	a-	n'y	.	.	.	1d	le	ny
=5	=5	=5	=5	=5	=5	=5	=5	=5	=5	=5	=5	=5	=5	=5
1r	.	.	0F	-mant	a	2A/	-mant	a	0A	1. 5. Du	4. En	1a	dep-	res-
.	.	.	.	.	.	4D/	le	ny	.	.	.	.	.	.
.	.	.	.	.	.	4E/	.	.	.	.	.	.	.	.
1D	le	ny	.	.	.	4F/	.	.	.	.	.	2a/	-part	-sort
.	.	.	.	.	.	4G/	.	.	.	.	.	.	.	.
.	.	.	.	.	.	2A/	.	.	.	.	.	[2a/	m'est	ny
=6	=6	=6	=6	=6	=6	=6	=6	=6	=6	=6	=6	=6	=6	=6
1D	dep-	res-	1r	.	.	2D/	dep-	res-	1d	mien	moy	4a/]	.	.
.	.	.	.	.	.	.	.	.	.	.	.	4g/	.	.
.	.	.	.	.	.	2A/	-part	-sort	.	.	.	4f/	.	.
.	.	.	.	.	.	.	.	.	.	.	.	4e/	.	.
1D	-part	-sort	1D	le	ny	2D/	m'est	ny	1d	a-	n'y	2f/	.	.
.	.	.	.	.	.	[2A/	si	re-	.	.	.	2f/	si	re-
=7	=7	=7	=7	=7	=7	=7	=7	=7	=7	=7	=7	=7	=7	=7
0AA	m'est	ny	1A	dep-	res-	2A/]	.	.	0c	-mant	a	0e	grief,	-lief,
.	.	.	.	.	.	4G/	.	.	.	.	.	.	.	.
.	.	.	.	.	.	4F/	.	.	.	.	.	.	.	.
.	.	.	2A/	-part	-sort	1E	grief,	-lief,	.	.	.	.	.	.
.	.	.	[2A/	m'est	ny	.	.	.	.	.	.	.	.	.
=8	=8	=8	=8	=8	=8	=8	=8	=8	=8	=8	=8	=8	=8	=8
0D	si	re-	4A/]	.	.	1r	.	.	1r	.	.	1r	.	.
.	.	.	4G/	.	.	.	.	.	.	.	.	.	.	.
.	.	.	4F/	.	.	.	.	.	.	.	.	.	.	.
.	.	.	4E/	.	.	.	.	.	.	.	.	.	.	.
.	.	.	2F/	.	.	2r	.	.	1A	le	ny	1f	le	ny
.	.	.	2F/	si	re-	2A/	le	ny	.	.	.	.	.	.
=9	=9	=9	=9	=9	=9	=9	=9	=9	=9	=9	=9	=9	=9	=9
0C	grief,	-lief,	0E	grief,	-lief,	1c	dep-	res-	1e	dep-	res-	1g	dep-	res-
.	.	.	.	.	.	1c	-part	-sort	2e\	-part	-sort	2g/	-part	-sort
.	.	.	.	.	.	.	.	.	[2e\	m'est	ny	[2g/	m'est	ny
=10	=10	=10	=10	=10	=10	=10	=10	=10	=10	=10	=10	=10	=10	=10
1r	.	.	0r	.	.	1c	m'est	ny	4e\]	.	.	4g/]	.	.
.	.	.	.	.	.	.	.	.	4d\	.	.	4f/	.	.
.	.	.	.	.	.	.	.	.	4c\	.	.	4e/	.	.
.	.	.	.	.	.	.	.	.	4B\	.	.	4d/	.	.
1C	le	ny	.	.	.	1c	si	re-	2c\	.	.	2e/	.	.
.	.	.	.	.	.	.	.	.	2c\	si	re-	2e/	si	re-
=11	=11	=11	=11	=11	=11	=11	=11	=11	=11	=11	=11	=11	=11	=11
1G	dep-	res-	0r	.	.	2d\	grief,	-lief,	0B	grief,	-lief,	1d	grief,	lief,
.	.	.	.	.	.	2d\	le	ny	.	.	.	.	.	.
2G\	-part	-sort	.	.	.	2d\	dep-	res-	.	.	.	2r	.	.
[2G\	m'est	ny	.	.	.	2d\	-part	-sort	.	.	.	2d/	Que	A-
=12	=12	=12	=12	=12	=12	=12	=12	=12	=12	=12	=12	=12	=12	=12
4G\]	.	.	0r	.	.	1B	m'est	ny	0r	.	.	1g	de	-dieu
4F\	.	.	.	.	.	.	.	.	.	.	.	.	.	.
4E\	.	.	.	.	.	.	.	.	.	.	.	.	.	.
4D\	.	.	.	.	.	.	.	.	.	.	.	.	.	.
2E\	.	.	.	.	.	1c	si	re-	.	.	.	1g	la	a-
2E\	si	re-	.	.	.	.	.	.	.	.	.	.	.	.
=13	=13	=13	=13	=13	=13	=13	=13	=13	=13	=13	=13	=13	=13	=13
1D	grief,	-lief,	0r	.	.	1d	grief,	-lief,	0r	.	.	1f	mort,	-my,
1D	Que	A-	.	.	.	2r	.	.	.	.	.	2r	.	.
.	.	.	.	.	.	2d\	Que	A-	.	.	.	2d/	que	a-
=14	=14	=14	=14	=14	=14	=14	=14	=14	=14	=14	=14	=14	=14	=14
1E	de	-dieu	0r	.	.	1B	de	-dieu	0r	.	.	1g	de	-dieu
1E	la	a-	.	.	.	1c	la	a-	.	.	.	1g	la	a-
=15	=15	=15	=15	=15	=15	=15	=15	=15	=15	=15	=15	=15	=15	=15
0D	mort,	-my,	0D	Que	A-	1d	mort,	-my,	0r	.	.	0f	mort,	-my,
.	.	.	.	.	.	2r	.	.	.	.	.	.	.	.
.	.	.	.	.	.	2A/	que	a-	.	.	.	.	.	.
=16	=16	=16	=16	=16	=16	=16	=16	=16	=16	=16	=16	=16	=16	=16
0r	.	.	1G	de	-dieu	1B	de	-dieu	0r	.	.	1r	.	.
.	.	.	1G	la	a-	1B	la	a-	.	.	.	1d	cer-	a-
=17	=17	=17	=17	=17	=17	=17	=17	=17	=17	=17	=17	=17	=17	=17
1r	.	.	0F	mort,	-my,	2A/	mort,	-my,	0A	Que	A-	1a	-tai-	-dieu
.	.	.	.	.	.	4D/	cer-	a-	.	.	.	.	.	.
.	.	.	.	.	.	4E/	.	.	.	.	.	.	.	.
1D	que	a-	.	.	.	4F/	.	.	.	.	.	2a/	-ne	sei-
.	.	.	.	.	.	4G/	.	.	.	.	.	.	.	.
.	.	.	.	.	.	2A/	.	.	.	.	.	[2a/	suis	-gneur
=18	=18	=18	=18	=18	=18	=18	=18	=18	=18	=18	=18	=18	=18	=18
1D	de	-dieu	1r	.	.	2D/	-tai-	-dieu	1d	de	-dieu	4a/]	.	.
.	.	.	.	.	.	.	.	.	.	.	.	4g/	.	.
.	.	.	.	.	.	2A/	-ne	sei-	.	.	.	4f/	.	.
.	.	.	.	.	.	.	.	.	.	.	.	4e/	.	.
1D	la	a-	1D	cer-	a-	2D/	suis	-gneur	1d	la	a-	2f/	.	.
.	.	.	.	.	.	[2A/	en	et	.	.	.	2f/	en	et
=19	=19	=19	=19	=19	=19	=19	=19	=19	=19	=19	=19	=19	=19	=19
1AA	mort,	-my,	1A	-tai-	-dieu	2A/]	.	.	0c	mort,	-my,	0e	brief,	chief,
.	.	.	.	.	.	4G/	.	.	.	.	.	.	.	.
.	.	.	.	.	.	4F/	.	.	.	.	.	.	.	.
1AA	cer-	a-	2A/	-ne	sei-	1E	brief,	chief,	.	.	.	.	.	.
.	.	.	[2A/	suis	-gneur	.	.	.	.	.	.	.	.	.
=20	=20	=20	=20	=20	=20	=20	=20	=20	=20	=20	=20	=20	=20	=20
1D	-tai-	-dieu	4A/]	.	.	1r	.	.	1r	.	.	1r	.	.
.	.	.	4G/	.	.	.	.	.	.	.	.	.	.	.
.	.	.	4F/	.	.	.	.	.	.	.	.	.	.	.
.	.	.	4E/	.	.	.	.	.	.	.	.	.	.	.
1D	-ne	sei-	2F/	.	.	2r	.	.	1A	cer-	a-	1f	cer-	a-
.	.	.	2F/	en	et	2A/	cer-	a-	.	.	.	.	.	.
=21	=21	=21	=21	=21	=21	=21	=21	=21	=21	=21	=21	=21	=21	=21
2.C/	suis	-gneur	0E	brief,	chief,	1c	-tai-	-dieu	1e	-tai-	-dieu	1g	-tai-	-dieu
4D\	.	.	.	.	.	.	.	.	.	.	.	.	.	.
1E	en	et	.	.	.	1B	-ne	sei-	2e\	-ne	sei-	1g	-ne	sei-
.	.	.	.	.	.	.	.	.	[2e\	suis	-gneur	.	.	.
=22	=22	=22	=22	=22	=22	=22	=22	=22	=22	=22	=22	=22	=22	=22
0AA	brief,	chief,	0r	.	.	1A	suis	-gneur	4e\]	.	.	1a	suis	-gneur
.	.	.	.	.	.	.	.	.	4d\	.	.	.	.	.
.	.	.	.	.	.	.	.	.	4c\	.	.	.	.	.
.	.	.	.	.	.	.	.	.	4B\	.	.	.	.	.
.	.	.	.	.	.	1A	en	et	2c\	.	.	2.e/	en	et
.	.	.	.	.	.	.	.	.	2c\	en	et	.	.	.
.	.	.	.	.	.	.	.	.	.	.	.	4f/	.	.
=23	=23	=23	=23	=23	=23	=23	=23	=23	=23	=23	=23	=23	=23	=23
0E	.	.	0G	Mon	Fort	1G	brief,	chief,	0B	brief,	chief,	0g	brief,	chief,
.	.	.	.	.	.	2r	.	.	.	.	.	.	.	.
.	.	.	.	.	.	2B\	Mon	Fort	.	.	.	.	.	.
=24	=24	=24	=24	=24	=24	=24	=24	=24	=24	=24	=24	=24	=24	=24
0r	.	.	1F	cueur	tri-	1c	cueur	tri-	0r	.	.	0r	.	.
.	.	.	1E	en	-um-	1c	en	-um-	.	.	.	.	.	.
=25	=25	=25	=25	=25	=25	=25	=25	=25	=25	=25	=25	=25	=25	=25
1r	.	.	0D	est	-phant	0d	est	-phant	0d	Mon	Fort	1r	.	.
1D	Mon	Fort	.	.	.	.	.	.	.	.	.	1f	Mon	Fort
=26	=26	=26	=26	=26	=26	=26	=26	=26	=26	=26	=26	=26	=26	=26
1E	cueur	tri-	0r	.	.	0r	.	.	1c	cueur	tri-	1g	cueur	tri-
1E	en	-um-	.	.	.	.	.	.	1B	en	-um-	1g	en	-um-
=27	=27	=27	=27	=27	=27	=27	=27	=27	=27	=27	=27	=27	=27	=27
1AA	est	-phant	1r	.	.	1r	.	.	0A	est	-phant	0a	est	-phant
2r	.	.	1c	le	et	1e	le	et	.	.	.	.	.	.
2AA/	le	et	.	.	.	.	.	.	.	.	.	.	.	.
=28	=28	=28	=28	=28	=28	=28	=28	=28	=28	=28	=28	=28	=28	=28
1D	vrai	il-	1.d	vrai	il-	1f	vrai	il-	0r	.	.	0r	.	.
1D	pro-	-lus-	.	.	.	1f	pro-	-lus-	.	.	.	.	.	.
.	.	.	2A/	pro-	-lus-	.	.	.	.	.	.	.	.	.
=29	=29	=29	=29	=29	=29	=29	=29	=29	=29	=29	=29	=29	=29	=29
2.C/	-nos-	-tre	1c	-nos-	-tre	1e	-nos-	-tre	1r	.	.	1r	.	.
4D\	.	.	.	.	.	.	.	.	.	.	.	.	.	.
1E	-ti-	vain-	1B	-ti-	vain-	1e	-ti-	vain-	1g	le	et	1b	le	et
=30	=30	=30	=30	=30	=30	=30	=30	=30	=30	=30	=30	=30	=30	=30
0AA	-cqueur,	-cqueur,	0A	-cqueur,	-cqueur,	0c	-cqueur,	-cqueur,	1a	vrai	il-	2cc\	vrai	il-
.	.	.	.	.	.	.	.	.	.	.	.	2cc\	pro-	-lus-
.	.	.	.	.	.	.	.	.	1e	pro-	-lus-	1cc	-nos-	-tre
=31	=31	=31	=31	=31	=31	=31	=31	=31	=31	=31	=31	=31	=31	=31
0r	.	.	0r	.	.	0r	.	.	1g	-nos-	-tre	1b	-ti-	vain-
.	.	.	.	.	.	.	.	.	1f	-ti-	vain-	1a	-cqueur,	-cqueur,
=32	=32	=32	=32	=32	=32	=32	=32	=32	=32	=32	=32	=32	=32	=32
0r	.	.	0A	Car	Par	0c	Car	Par	0e	-cqueur,	-cqueur,	2r	.	.
.	.	.	.	.	.	.	.	.	.	.	.	2cc\	le	et
.	.	.	.	.	.	.	.	.	.	.	.	2cc\	vrai	il-
.	.	.	.	.	.	.	.	.	.	.	.	2cc\	pro-	-lus-
=33	=33	=33	=33	=33	=33	=33	=33	=33	=33	=33	=33	=33	=33	=33
0r	.	.	1G	la	tes-	1d	la	tes-	0r	.	.	1b	-nos-	-tre
.	.	.	1F	poi-	-ta-	1d	poi-	-ta-	.	.	.	1a	-ti-	vain-
=34	=34	=34	=34	=34	=34	=34	=34	=34	=34	=34	=34	=34	=34	=34
1r	.	.	0E	-son	-ment	0e	-son	-ment	0e	Car	Par	1g	-cqueur,	-cqueur,
1C	Car	Par	.	.	.	.	.	.	.	.	.	2r	.	.
.	.	.	.	.	.	.	.	.	.	.	.	2e/	Car	Par
=35	=35	=35	=35	=35	=35	=35	=35	=35	=35	=35	=35	=35	=35	=35
1D	la	tes-	0r	.	.	0r	.	.	1d	la	tes-	1a	la	tes-
1AA	poi-	-ta-	.	.	.	.	.	.	1c	poi-	-ta-	1a	poi-	-ta-
=36	=36	=36	=36	=36	=36	=36	=36	=36	=36	=36	=36	=36	=36	=36
0E	-son	-ment	1r	.	.	1r	.	.	0B	-son	-ment	1g	-son	-ment
.	.	.	1G	d'a	je	1e	d'a	je	.	.	.	2r	.	.
.	.	.	.	.	.	.	.	.	.	.	.	2b\	d'a	je
=37	=37	=37	=37	=37	=37	=37	=37	=37	=37	=37	=37	=37	=37	=37
0r	.	.	1.A	-mo-	te	1.e	-mo-	te	0r	.	.	2.cc\	-mo-	te
.	.	.	.	.	.	.	.	.	.	.	.	4a/	.	.
.	.	.	.	.	.	.	.	.	.	.	.	2cc\	.	.
.	.	.	2E/	-reu-	lais-	2e\	-reu-	lais-	.	.	.	[2b\	-reu-	lais-
=38	=38	=38	=38	=38	=38	=38	=38	=38	=38	=38	=38	=38	=38	=38
0r	.	.	1G	-se	-se	2d\	.	.	1r	.	.	4b\]	.	.
.	.	.	.	.	.	.	.	.	.	.	.	4g/	.	.
.	.	.	.	.	.	2G/	-se	-se	.	.	.	2b\	-se	-se
.	.	.	1F	li-	mon	1A	li-	mon	1d	d'a	je	1a	li-	mon
=39	=39	=39	=39	=39	=39	=39	=39	=39	=39	=39	=39	=39	=39	=39
2r	.	.	0E	-cqueur,	cueur,	2c\	-cqueur,	cueur,	1.e	-mo-	te	2g/	-cqueur,	cueur,
2E\	d'a	je	.	.	.	2G/	d'a-	je	.	.	.	2g/	d'a-	je
2E\	-mo-	te	.	.	.	2G/	-mo-	te	.	.	.	2g/	-mo-	te
2E\	-reu-	lais-	.	.	.	2G/	-reu-	lais-	2B\	-reu-	lais-	2g/	-reu-	lais-
=40	=40	=40	=40	=40	=40	=40	=40	=40	=40	=40	=40	=40	=40	=40
2.D\	-se	-se	0r	.	.	1A	-se	-se	1d	-se	-se	1f	-se	-se
4C/	.	.	.	.	.	.	.	.	.	.	.	.	.	.
1AA	li-	mon	.	.	.	1A	li-	mon	1c	li-	mon	2.e/	li-	mon
.	.	.	.	.	.	.	.	.	.	.	.	4f/	.	.
=41	=41	=41	=41	=41	=41	=41	=41	=41	=41	=41	=41	=41	=41	=41
0E	-cqueur,	cueur,	0G	Sans	Et	1G	-cqueur,	cueur,	0B	-cqueur,	cueur,	0g	-cqueur,	cueur,
.	.	.	.	.	.	1B	Sans	Et	.	.	.	.	.	.
=42	=42	=42	=42	=42	=42	=42	=42	=42	=42	=42	=42	=42	=42	=42
0r	.	.	1F	nul	vois	1c	nul	vois	0r	.	.	0r	.	.
.	.	.	1E	res-	mo-	1c	res-	mo-	.	.	.	.	.	.
=43	=43	=43	=43	=43	=43	=43	=43	=43	=43	=43	=43	=43	=43	=43
1r	.	.	0D	-pit	-rir	0d	-pit	-rir	0d	Sans	Et	1r	.	.
1D	Sans	Et	.	.	.	.	.	.	.	.	.	1f	Sans	Et
=44	=44	=44	=44	=44	=44	=44	=44	=44	=44	=44	=44	=44	=44	=44
1E	nul	vois	0r	.	.	0r	.	.	1c	nul	vois	1g	nul	vois
1E	res-	mo-	.	.	.	.	.	.	1B	res-	mo-	1g	res-	mo-
=45	=45	=45	=45	=45	=45	=45	=45	=45	=45	=45	=45	=45	=45	=45
1AA	-pit	-rir	1r	.	.	1r	.	.	0A	-pit	-rir	0a	-pit	-rir
1AA	me	et	1c	me	et	1e	me	et	.	.	.	.	.	.
=46	=46	=46	=46	=46	=46	=46	=46	=46	=46	=46	=46	=46	=46	=46
1.D	cau-	a-	1.d	cau-	a-	1.f	cau-	a-	0r	.	.	0r	.	.
2D\	-se	-dieu	2A/	-se	-dieu	2f\	-se	-dieu	.	.	.	.	.	.
=47	=47	=47	=47	=47	=47	=47	=47	=47	=47	=47	=47	=47	=47	=47
2C/	ce	de-	1c	ce	de-	1e	ce	de-	1r	.	.	1r	.	.
2AA/	.	.	.	.	.	.	.	.	.	.	.	.	.	.
1E	mes-	-re-	1B	mes-	-re-	1e	mes-	-re-	1g	me	et	1b	me	et
=48	=48	=48	=48	=48	=48	=48	=48	=48	=48	=48	=48	=48	=48	=48
1AA	-chief,	-chief,	0A	-chief,	-chief,	0c	-chief,	-chief,	1.a	cau-	a-	1.cc	cau-	a-
2r	.	.	.	.	.	.	.	.	.	.	.	.	.	.
2AA/	me	et	.	.	.	.	.	.	2e\	-se	-dieu	2cc\	-se	-dieu
=49	=49	=49	=49	=49	=49	=49	=49	=49	=49	=49	=49	=49	=49	=49
1E	cau-	a-	0r	.	.	2r	.	.	1g	ce	de-	1b	ce	de-
.	.	.	.	.	.	2G/	me	et	.	.	.	.	.	.
1F	-se	-dieu	.	.	.	2A/	cau-	a-	1f	mes-	-re-	1a	mes-	-re-
.	.	.	.	.	.	2F/	-se	-dieu	.	.	.	.	.	.
=50	=50	=50	=50	=50	=50	=50	=50	=50	=50	=50	=50	=50	=50	=50
2.C/	ce	de-	1r	.	.	1c	ce	de-	0e	-chief,	-chief,	1g	-chief,	-chief,
4D\	.	.	.	.	.	.	.	.	.	.	.	.	.	.
1E	mes-	-re-	1G	me	et	1B	mes-	-re-	.	.	.	2r	.	.
.	.	.	.	.	.	.	.	.	.	.	.	2b\	me	et
=51	=51	=51	=51	=51	=51	=51	=51	=51	=51	=51	=51	=51	=51	=51
0AA	-chief,	-chief,	1A	cau-	a-	0A	-chief,	-chief,	0r	.	.	1cc	cau-	a-
.	.	.	2A/	-se	-dieu	.	.	.	.	.	.	2a/	-se	-dieu
.	.	.	[2A/	ce	de-	.	.	.	.	.	.	[2cc\	ce	de-
=52	=52	=52	=52	=52	=52	=52	=52	=52	=52	=52	=52	=52	=52	=52
0r	.	.	4A/]	.	.	1r	.	.	1r	.	.	4cc\]	.	.
.	.	.	4G/	.	.	.	.	.	.	.	.	4b\	.	.
.	.	.	2E/	.	.	.	.	.	.	.	.	2g/	.	.
.	.	.	1F	mes-	-re-	1A	-chief,	-chief,	1d	me	et	1a	mes-	-re-
=53	=53	=53	=53	=53	=53	=53	=53	=53	=53	=53	=53	=53	=53	=53
2r	.	.	[0E	-chief.	-chief.	1.c	cau-	a-	1e	cau-	a-	2g/	-chief,	-chief,
2AA/	me	et	.	.	.	.	.	.	.	.	.	2e/	me	et
2E\	cau-	a-	.	.	.	.	.	.	2e\	-se	-dieu	2g/	cau-	a-
2AA/	-se	-dieu	.	.	.	2c\	-se	-dieu	[2e\	ce	de-	2c/	-se	-dieu
=54	=54	=54	=54	=54	=54	=54	=54	=54	=54	=54	=54	=54	=54	=54
1E	ce	de-	0E]	.	.	2B\	ce	de-	4e\]	.	.	1g	ce	de-
.	.	.	.	.	.	.	.	.	4d\	.	.	.	.	.
.	.	.	.	.	.	2G/	.	.	2B\	.	.	.	.	.
1AA	mes-	-re-	.	.	.	1A	mes-	-re-	1c	mes-	-re-	2.e/	mes-	-re-
.	.	.	.	.	.	.	.	.	.	.	.	4f/	.	.
=55	=55	=55	=55	=55	=55	=55	=55	=55	=55	=55	=55	=55	=55	=55
0El	-chief.	-chief.	0El	.	.	0Gl	-chief.	-chief.	0Bl	-chief.	-chief.	0gl	-chief.	-chief.
!!LO:LB:i:g=z
=56||!|:	=56||!|:	=56||!|:	=56||!|:	=56||!|:	=56||!|:	=56||!|:	=56||!|:	=56||!|:	=56||!|:	=56||!|:	=56||!|:	=56||!|:	=56||!|:	=56||!|:
*>B	*	*	*>B	*	*	*>B	*	*	*>B	*	*	*>B	*	*
!!section: Or au facteur
!!!OMD: Or au facteur
*M2/1	*	*	*M2/1	*	*	*M2/1	*	*	*M2/1	*	*	*M2/1	*	*
*met(C|)	*	*	*met(C|)	*	*	*met(C|)	*	*	*met(C|)	*	*	*met(C|)	*	*
0r	.	.	0F	2. Or	3. Mais	0D	2. Or	3. Mais	0r	.	.	0a	2. Or	3. Mais
=57	=57	=57	=57	=57	=57	=57	=57	=57	=57	=57	=57	=57	=57	=57
0r	.	.	0G	au	quant	0B-	au	quant	0r	.	.	0d	au	quant
=58	=58	=58	=58	=58	=58	=58	=58	=58	=58	=58	=58	=58	=58	=58
0AA	2. Or	3. Mais	0E	fac-	au	0A	fac-	au	0c	2. Or	3. Mais	0e	fac-	au
=59	=59	=59	=59	=59	=59	=59	=59	=59	=59	=59	=59	=59	=59	=59
0D	au	quant	1D	-teur	cueur	1A	-teur,	cueur,	0d	au	quant	1f	-teur	cueur
.	.	.	1D	de	j'es-	[1d	or	mais	.	.	.	1f	de	j'es-
=60	=60	=60	=60	=60	=60	=60	=60	=60	=60	=60	=60	=60	=60	=60
0GG	fac-	au	1G	tout-	-lis	1d]	.	.	0B	fac-	au	1g	tout-	-lis
.	.	.	1G	-te	sa	1d	au	quant	.	.	.	1g	-te	sa
=61	=61	=61	=61	=61	=61	=61	=61	=61	=61	=61	=61	=61	=61	=61
1D	-teur	cueur	1F	cr&eacute;-	s&eacute;-	0d	fac-	au	1A	-teur	cueur	1a	cr&eacute;-	s&eacute;-
1D	de	j'es-	2D/	-a-	-pul-	.	.	.	1A	de	j'es-	2a/	-a-	-pul-
.	.	.	[2A/	-tu-	-tu-	.	.	.	.	.	.	[2f/	-tu-	-tu-
=62	=62	=62	=62	=62	=62	=62	=62	=62	=62	=62	=62	=62	=62	=62
1D	tout-	-lis	4A/]	.	.	1D	-teur,	cueur,	1d	tout-	-lis	4f/]	.	.
.	.	.	4G/	.	.	.	.	.	.	.	.	4e/	.	.
.	.	.	4F/	.	.	.	.	.	.	.	.	4d/	.	.
.	.	.	4E/	.	.	.	.	.	.	.	.	4c/	.	.
1D	-te	sa	1F	.	.	1A	de	j'es-	1d	-te	sa	1d	.	.
=63	=63	=63	=63	=63	=63	=63	=63	=63	=63	=63	=63	=63	=63	=63
1AA	cr&eacute;-	s&eacute;-	0E	-re	-re	1A	tout-	-lis	1c	cr&eacute;-	s&eacute;-	[0e	-re	-re
1AA	-a-	-pul-	.	.	.	1A	-te	sa	2A/	-a-	-pul-	.	.	.
.	.	.	.	.	.	.	.	.	[2e\	-tu-	-tu-	.	.	.
=64	=64	=64	=64	=64	=64	=64	=64	=64	=64	=64	=64	=64	=64	=64
1.C	-tu-	-tu-	0r	.	.	2G/	cr&eacute;-	s&eacute;-	4e\]	.	.	0e_	.	.
.	.	.	.	.	.	.	.	.	4d\	.	.	.	.	.
.	.	.	.	.	.	2E/	-a-	-pul-	4c\	.	.	.	.	.
.	.	.	.	.	.	.	.	.	4B\	.	.	.	.	.
.	.	.	.	.	.	1A	-tu-	-tu-	1c	.	.	.	.	.
2D\	.	.	.	.	.	.	.	.	.	.	.	.	.	.
=65	=65	=65	=65	=65	=65	=65	=65	=65	=65	=65	=65	=65	=65	=65
0E	-re	-re	0r	.	.	0G	-re	-re	0B	-re	-re	0e]	.	.
=66	=66	=66	=66	=66	=66	=66	=66	=66	=66	=66	=66	=66	=66	=66
0r	.	.	0E	Je	A-	1r	.	.	0r	.	.	0r	.	.
.	.	.	.	.	.	1e	Je	A-	.	.	.	.	.	.
=67	=67	=67	=67	=67	=67	=67	=67	=67	=67	=67	=67	=67	=67	=67
0r	.	.	1F	rendz	-vecq	1c	rendz	-vecq	0r	.	.	0a	Je	A-
.	.	.	1F	mon	cel-	1d	mon	cel-	.	.	.	.	.	.
=68	=68	=68	=68	=68	=68	=68	=68	=68	=68	=68	=68	=68	=68	=68
0E	Je	A-	1E	a-	-luy	1e	a-	-luy	0B	Je	A-	1g	rendz	-vecq
.	.	.	1E	me et	que	1e	me et	que	.	.	.	1g	mon	cel-
=69	=69	=69	=69	=69	=69	=69	=69	=69	=69	=69	=69	=69	=69	=69
1AA	rendz	-vecq	1A	la	en-	1e	la	en-	1c	rendz	-vecq	1a	a-	-luy
1AA	mon	cel-	1A	metz	-tre	[1e	metz	-tre	1c	mon	cel-	1a	me et	que
=70	=70	=70	=70	=70	=70	=70	=70	=70	=70	=70	=70	=70	=70	=70
1E	a-	-luy	1G	en	tous	2e\]	.	.	1B	a-	-luy	2.b\	la	en-
.	.	.	.	.	.	4d\	.	.	.	.	.	.	.	.
.	.	.	.	.	.	4c\	.	.	.	.	.	4a/	.	.
1E	me et	que	1G	ses	hu-	2B\	.	.	1B	me et	que	2b\	.	.
.	.	.	.	.	.	[2e\	en	tous	.	.	.	[2g/	metz	-tre
=71	=71	=71	=71	=71	=71	=71	=71	=71	=71	=71	=71	=71	=71	=71
1C	la	en-	0E	mains;	-mains	2e\]	.	.	1e	la	en-	2g/]	.	.
.	.	.	.	.	.	2.c\	ses	hu-	.	.	.	4cc\	en	tous
.	.	.	.	.	.	.	.	.	.	.	.	4b\	.	.
1C	metz	-tre	.	.	.	.	.	.	1e	metz	-tre	4a/	.	.
.	.	.	.	.	.	4B\	.	.	.	.	.	4g/	.	.
.	.	.	.	.	.	4A/	.	.	.	.	.	[2a/	.	.
.	.	.	.	.	.	4G/	.	.	.	.	.	.	.	.
=72	=72	=72	=72	=72	=72	=72	=72	=72	=72	=72	=72	=72	=72	=72
1D	en	tous	0r	.	.	2F/	.	.	1d	en	tous	4a/]	.	.
.	.	.	.	.	.	.	.	.	.	.	.	4g/	.	.
.	.	.	.	.	.	2G/	.	.	.	.	.	1g	ses	hu-
1D	ses	hu-	.	.	.	1A	.	.	1d	ses	hu-	.	.	.
.	.	.	.	.	.	.	.	.	.	.	.	2f#i/	.	.
=73	=73	=73	=73	=73	=73	=73	=73	=73	=73	=73	=73	=73	=73	=73
0GG	mains;	-mains	0r	.	.	0G	mains;	-mains	0B	mains;	-mains	0g	mains;	-mains
=74	=74	=74	=74	=74	=74	=74	=74	=74	=74	=74	=74	=74	=74	=74
0GG	.	.	0G	Tou-	J'ay	2r	.	.	0r	.	.	0r	.	.
.	.	.	.	.	.	2d\	Tou-	J'ay	.	.	.	.	.	.
.	.	.	.	.	.	2d\	-chant	mieulx	.	.	.	.	.	.
.	.	.	.	.	.	[2d\	ce	ay-	.	.	.	.	.	.
=75	=75	=75	=75	=75	=75	=75	=75	=75	=75	=75	=75	=75	=75	=75
0r	.	.	1E	-chant	mieulx	2d\]	.	.	0r	.	.	2r	.	.
.	.	.	.	.	.	4c\	.	.	.	.	.	2g/	Tou-	J'ay
.	.	.	.	.	.	4B\	.	.	.	.	.	.	.	.
.	.	.	1E	ce	ay-	1c	.	.	.	.	.	2g/	-chant	mieulx
.	.	.	.	.	.	.	.	.	.	.	.	[2g/	ce	ay-
=76	=76	=76	=76	=76	=76	=76	=76	=76	=76	=76	=76	=76	=76	=76
0r	.	.	1D	corps	-me	1d	corps	-me	0d	Tou-	J'ay	2g/]	.	.
.	.	.	.	.	.	.	.	.	.	.	.	4f#i/	.	.
.	.	.	.	.	.	.	.	.	.	.	.	4e/	.	.
.	.	.	1D	mor-	se-	[1d	mor-	se-	.	.	.	1f#i	.	.
=77	=77	=77	=77	=77	=77	=77	=77	=77	=77	=77	=77	=77	=77	=77
1r	.	.	1G	-tel	-lon	1d]	.	.	1B	-chant	mieulx	1g	corps	-me
1GG	Tou-	J'ay	1G	c'est	le	1d	-tel	-lon	1B	ce	ay-	1g	mor-	se-
=78	=78	=78	=78	=78	=78	=78	=78	=78	=78	=78	=78	=78	=78	=78
1D	-chant	mieulx	0F	bien	dict	1d	c'est	le	1A	corps	-me	1a	-tel	-lon
1D	ce	ay-	.	.	.	1d	bien	dict	1A	mor-	se-	[1f	c'est	le
=79	=79	=79	=79	=79	=79	=79	=79	=79	=79	=79	=79	=79	=79	=79
1BB-	corps	-me	0B-	du	de	1d	du	de	1d	-tel	-lon	2f/]	.	.
.	.	.	.	.	.	.	.	.	.	.	.	2f/	bien	dict
1BB-i	mor-	se-	.	.	.	[1f	moins,	maintz,	1d	c'est	le	2.f/	du	de
.	.	.	.	.	.	.	.	.	.	.	.	4g/	.	.
=80	=80	=80	=80	=80	=80	=80	=80	=80	=80	=80	=80	=80	=80	=80
1F	-tel	-lon	0A	moins,	maintz,	2f\]	.	.	0c	bien	dict	[0a	moins,	maintz,
.	.	.	.	.	.	4e\	.	.	.	.	.	.	.	.
.	.	.	.	.	.	4d\	.	.	.	.	.	.	.	.
2.F\	c'est	le	.	.	.	2c\	.	.	.	.	.	.	.	.
.	.	.	.	.	.	2c\	c'est	le	.	.	.	.	.	.
4E\	.	.	.	.	.	.	.	.	.	.	.	.	.	.
=81	=81	=81	=81	=81	=81	=81	=81	=81	=81	=81	=81	=81	=81	=81
1D	bien	dict	0r	.	.	2d\	bien,	dict,	0f	du	de	1a]	.	.
.	.	.	.	.	.	4D/	c'est	le	.	.	.	.	.	.
.	.	.	.	.	.	4E/	.	.	.	.	.	.	.	.
1D	du	de	.	.	.	4F/	.	.	.	.	.	1a	c'est	se-
.	.	.	.	.	.	4G/	.	.	.	.	.	.	.	.
.	.	.	.	.	.	[2A/	.	.	.	.	.	.	.	.
=82	=82	=82	=82	=82	=82	=82	=82	=82	=82	=82	=82	=82	=82	=82
2C/	moins,	maintz,	0r	.	.	4A/]	.	.	0e	moins,	maintz,	1.cc	bien	-lon
.	.	.	.	.	.	4B\	.	.	.	.	.	.	.	.
4AA/	c'est	se-	.	.	.	4c\	.	.	.	.	.	.	.	.
4BB/	.	.	.	.	.	4d\	.	.	.	.	.	.	.	.
4C/	.	.	.	.	.	4e\	.	.	.	.	.	.	.	.
4D\	.	.	.	.	.	4f\	.	.	.	.	.	.	.	.
2E\	.	.	.	.	.	2g\	.	.	.	.	.	2b\	.	le
=83	=83	=83	=83	=83	=83	=83	=83	=83	=83	=83	=83	=83	=83	=83
2F\	bien	-lon	0r	.	.	2f\	bien	dict	0r	.	.	2a/	.	dict
2C/	.	.	.	.	.	2.e\	du	de	.	.	.	2g/	.	.
1D	du	de	.	.	.	.	.	.	.	.	.	1f	du	de
.	.	.	.	.	.	4d\	.	.	.	.	.	.	.	.
.	.	.	.	.	.	4d\	.	.	.	.	.	.	.	.
.	.	.	.	.	.	4c\	.	.	.	.	.	.	.	.
=84	=84	=84	=84	=84	=84	=84	=84	=84	=84	=84	=84	=84	=84	=84
1AA	moins	maintz,	0A	Qu'il	Dont	1e	moins	maintz,	0r	.	.	0e	moins	maintz,
1r	.	.	.	.	.	1c	Qu'il	Dont	.	.	.	.	.	.
=85	=85	=85	=85	=85	=85	=85	=85	=85	=85	=85	=85	=85	=85	=85
0D	Qu'il	Dont	1F	ail-	en	1d	ail-	en	0r	.	.	1r	.	.
.	.	.	1F	le en	dou-	1A	le en	dou-	.	.	.	1f	Qu'il	Dont
=86	=86	=86	=86	=86	=86	=86	=86	=86	=86	=86	=86	=86	=86	=86
0C	ail-	en	1E	ter-	leur	1c	ter-	leur	0e	Qu'il	Dont	1g	ail-	en
.	.	.	1E	-re at-	je	1c	-re at-	je	.	.	.	1g	le en	dou-
=87	=87	=87	=87	=87	=87	=87	=87	=87	=87	=87	=87	=87	=87	=87
0AA	le en	dou-	1F	-ten-	fais	2c\	-ten-	fais	1c	ail-	en	1a	ter-	leur
.	.	.	.	.	.	2c\	-dre	fin	.	.	.	.	.	.
.	.	.	1F	-dre	fin	2A/	pour	a	1c	le en	dou-	1a	-re at-	je
.	.	.	.	.	.	2A/	ri-	na-	.	.	.	.	.	.
=88	=88	=88	=88	=88	=88	=88	=88	=88	=88	=88	=88	=88	=88	=88
1GG	ter-	leur	1G	pour	a	2.B\	-tu-	-tu-	1B	ter-	leur	1d	-ten-	fais
.	.	.	.	.	.	4G/	.	.	.	.	.	.	.	.
1GG	-re at-	je	1G	ri-	na-	1G	-re,	-re,	1B	-re at-	je	1d	-dre	fin
=89	=89	=89	=89	=89	=89	=89	=89	=89	=89	=89	=89	=89	=89	=89
1C	-ten-	fais	0E	-tu-	-tu-	2r	.	.	1c	-ten-	fais	1e	pour	a
.	.	.	.	.	.	2G/	at-	je	.	.	.	.	.	.
1AA	-dre	fin	.	.	.	[1A	-ten-	fais	1c	-dre	fin	1e	ri-	na-
=90	=90	=90	=90	=90	=90	=90	=90	=90	=90	=90	=90	=90	=90	=90
1D	pour	a	[0Dl	-re.	-re.	2A/]	.	.	1d	pour	a	1.f	-tu-	-tu-
.	.	.	.	.	.	2A/	-dre	fin	.	.	.	.	.	.
1D	ri-	na-	.	.	.	2F/	pour	a	1d	ri-	na-	.	.	.
.	.	.	.	.	.	2F/	ri-	na-	.	.	.	2d/	.	.
=91	=91	=91	=91	=91	=91	=91	=91	=91	=91	=91	=91	=91	=91	=91
0GG	-tu-	-tu-	0D_	.	.	2G/	-tu-	-tu-	0B-i	-tu-	-tu-	[0dl	-re.	-re.
.	.	.	.	.	.	2D/	.	.	.	.	.	.	.	.
.	.	.	.	.	.	1G	.	.	.	.	.	.	.	.
=92	=92	=92	=92	=92	=92	=92	=92	=92	=92	=92	=92	=92	=92	=92
0Dl	-re.	-re.	0D]	.	.	0Fl	-re.	-re.	0Al	-re.	-re.	0d]	.	.
==:|!	==:|!	==:|!	==:|!	==:|!	=||	==:|!	==:|!	==:|!	==:|!	==:|!	==:|!	==:|!	==:|!	==:|!
*-	*-	*-	*-	*-	*-	*-	*-	*-	*-	*-	*-	*-	*-	*-
!!!RDF**kern: l=long note in original notation
!!!RDF**kern: i=editorial accidental
!!!ENC: Will Watson 15/09/2011
!!!END: 2011/09/15/
!!!EED: Jesse Rodin
!!!EEV: 2011/12/06/
!!attribution-level@Jos: 2 (provisionally attributable [parentheses checkmark])
!!!ONB: Translated from MusicXML and edited on 2011/12/06/ by Craig Sapp
!!muse2ps: C^@{COM}\n@{SCT}^i2I150v90,90,90,90,125c105z18l2600t100
